X:1
T:Silver Screen
T:Silver Screen
T:Waltz
T:By PETE WENDLING and MAX KORTLANDER 
T:Copyright 1924 by Pete Wendling &amp; Max Kortlander.
T:Copyright 1924 by Pete Wendling &amp; Max Kortlander.
T:Copyright 1924 by Pete Wendling &amp; Max Kortlander.
C:By PETE WENDLING and MAX KORTLANDER
Z:Copyright 1924 by Pete Wendling & Max Kortlander.
%%score { ( 1 3 ) | ( 2 4 ) }
L:1/8
Q:1/4=120
M:3/4
K:D
V:1 treble nm="Piano" snm="Pno."
V:3 treble 
V:2 treble 
V:4 treble 
V:1
"^Valse lento"!mp! (=fd'bag=f | (e=b !tenuto!e4)) | (_e=c'_bg=fe | (da !tenuto!d4)) | %4
 z .D!<(!.G z"^R.H." !>!g2!<)! | z ._E._A z"^R.H." _a2 | z .=E.=A z"^R.H."!>(! =a x | %7
 !>!f'"^R.H." z z2!>)! z2 ||!mf!!<(! (bf'e'!<)!c'bf | ecBF!>(!EC)!>)! | %10
!mp! z2 !tenuto![DEG]2 !tenuto![DEG]2 | z2 !tenuto![^EA]2 !tenuto![EA]2 |!mf!!<(! (bf'e'!<)!c'bf | %13
 edBF!>(!ED)!>)! |!mp! z2 !tenuto![DFA]2 !tenuto![DFA]2 | z2 !tenuto![DFA]2 !tenuto![DFA]2 | %16
 (^A,>B,D>EF>D | !tenuto!E6) | (^C>DF>Ac>A) | !tenuto!B6 |!f!!<(! (^a>^d'!<)!c'>af>^d | %21
 c>^A!courtesy!^F>^D!courtesy!^C>A | ^G6 | !tenuto!F6) |!mf!!<(! (bf'e'!<)!c'bf | ecBF!>(!EC)!>)! | %26
!mp! z2 !tenuto![DEG]2 !tenuto![DEG]2 | z2 !tenuto![^EA]2 !tenuto![EA]2 |!<(! (bf'!<)!!mf!e'c'bf | %29
 edBF!>(!ED)!>)! |!mp! z2 !tenuto![DFA]2 !tenuto![DFA]2 | z2 !tenuto![DFA]2 !tenuto![DFA]2 | %32
 (^A,>B,D>EF>D | !tenuto!E6) | (^C>DF>Ac>A | !tenuto!B6) | (bf'e'c'bf |!<(! ecB!<)!ABf) | dFAdfa | %39
 d'2!fine! ||[K:G] !fermata![DGBd]2 !fermata![_EG_B_d_e]2 |: %41
!mf!!f! !arpeggio![=EA=c=e]4 !arpeggio![cegc']2 | !arpeggio![Bdfb]4 !arpeggio![Acfa]2 | %43
!<(! !arpeggio!!>!!tenuto![FBdf]2 !arpeggio!!>!!tenuto![GBdg]2!<)! !arpeggio!!>!!tenuto![Bdgb]2 | %44
 !>![dgbd']2!>(! !>![fbd'f'] z z [ee']!>)! | !arpeggio![ceac']4 !arpeggio![eac'e']2 | %46
 !arpeggio![Bdfb]4 !arpeggio![Acfa]2 |!<(! [dgbd']2- [dgbd']>!<)!(eg>b) | %48
!>(! .d' z!>)! !>!!tenuto!!fermata![DGBd]2 !>!!tenuto!!fermata![_EG_B_d_e]2 | %49
 !arpeggio![=EA=c=e]4 !arpeggio![cegc']2 | !arpeggio![Bdfb]4 !arpeggio![Acfa]2 | %51
!<(! !arpeggio!!>!!tenuto![FBdf]2 !arpeggio!!>!!tenuto![GBdg]2!<)! !arpeggio!!>!!tenuto![Bdgb]2 | %52
 !>![dgbd']2 !>![fbd'f'] z z!>(! [ee'] | !tenuto![^dfb^d']6-!>)! | %54
 [dfbd']2 !>!!tenuto![f^ac'f']3 [^c!courtesy!^c'] |!>(! !tenuto![^dfb^d']6- | %56
 [dfbd']!>)! z !fermata![DGB=d]2 !fermata![_EG_B_d_e]2 | !arpeggio![=EA=c=e]4 !arpeggio![cegc']2 | %58
 !arpeggio![Bdfb]4 !arpeggio![Acfa]2 | %59
!<(! !arpeggio!!>!!tenuto![FBdf]2 !arpeggio!!>!!tenuto![GBdg]2!<)! !arpeggio!!>!!tenuto![Bdgb]2 | %60
 !>![dgbd']2!>(! !>![fbd'f'] z z [ee']!>)! | !arpeggio![ceac']4 !arpeggio![eac'e']2 | %62
 !arpeggio![Bdfb]4 !arpeggio![Acfa]2 | [d=f^gbd']6- | [dfgbd']2 (([dd']2 [^c^c']2)) | %65
 [=cea=c']4 [EAce]2 | [B^dfb]4 [Adfa]2 |!<(! !>![FA^df]2 !>![GBeg]2 !>![Begb]2 | %68
 !>![dfbd']2!<)! !arpeggio!!fermata![f^gbd'f']2 z [ee'] | ((!tenuto![c_egc']6 | %70
 ((!tenuto![Bdfb]6)) |1!f! [GBdg])) z !>![fbd'f']2 !>![egbe']2 | %72
 !>![dgbd']2 !fermata![DGBd]2 !fermata![_EG_B_d_e]2 :|2 %73
 [GBdg]!p! [^A,^C][B,D]!>(![^CF][DG][F^A]!>)! | [GB][^A^c][Bd][^cf][dg][f^a] | %75
 [gb][^a^c'][bd']!8va(![c'^f'][d'g'][f'^a'] |!ppp! !fermata![g'b']6!8va)!!D.C.! |] %77
V:2
 !tenuto![=FA_e]6 | !tenuto![=E^Gd]4 .[EGd]2 | !tenuto![_E=G_d]6 | !tenuto![=D^F=c]4 .[DFc]2 | %4
[K:bass]"^cresc." !>!.[D,=F,G,B,] z z"^L.H." x3 | !>!.[_E,_G,_A,=C] z z"^L.H." x3 | %6
 !>!.[=E,=G,=A,^C] z z"^L.H.""^rall e dim." x3 | z2 !fermata!A,,,2 z2 || %8
"^accel" !arpeggio![E,,B,,G,]2 .[G,B,E] z z2 | [A,,,A,,]2 .[E,G,C]"^dim." z"^rit." z2 | %10
 [E,,E,]2 z2 z2 | [A,,,A,,]2 z2 z2 | !arpeggio![D,,A,,F,]2 .[A,DG] z"^accel." z2 | %13
 [A,,,A,,]2 .[A,DF]"^dim." z"^rit." z2 | [D,,D,]2 z2 z2 | [D,,D,]2 z2 z2 | %16
"^a tempo" .G,,2 !tenuto![D,G,B,]4 | (([B,,,B,,]4 [_B,,,_B,,]2)) | .[A,,,A,,]2 !tenuto![F,A,D]4 | %19
 !tenuto![D,,A,,F,]6 | [C,,C,]2 [^A,!courtesy!^C^F]"^accel" z z2 | z6 | %22
"^rit." ([C,,C,]2"^dim." F,2 ^E,2) | ([F,,F,]2!8vb(! !^!!tenuto!F,,,4)!8vb)! | %24
"^accel" !arpeggio![E,,B,,G,]2 .[G,B,E] z z2 | [A,,,A,,]2 .[E,G,C]"^dim." z"^rit." z2 | %26
 [E,,E,]2 z2 z2 | [A,,,A,,]2 z2 z2 | !arpeggio![D,,A,,F,]2 .[A,DG] z"^accel." z2 | %29
 [A,,,A,,]2 .[A,DF]"^dim." z"^rit." z2 | [D,,D,]2 z2 z2 | [D,,D,]2 z2 z2 | %32
"^a tempo" .G,,2 !tenuto![D,G,B,]4 | (([B,,,B,,]4 [_B,,,_B,,]2)) | .[A,,,A,,]2 !tenuto![F,A,D]4 | %35
 z2 (B,2 A,2) |"^accel   -      -" !arpeggio![E,,B,,^G,]2 .[E,G,D] z z2 | %37
"^-  er     -     an     -    do" [A,,,A,,]2 [E,=G,D]2 [E,G,C]2 |"^L.H." !arpeggio![D,,A,,F,]2 x4 | %39
"^Fine" x2 ||[K:G] !fermata![B,,B,]2 !fermata![_B,,_B,]2 |: %41
"^a tempo""^-" [A,,A,]2 [E,A,C]2 [A,CE]2 | [D,,D,]2 [D,F,C]2 [F,A,CD]2 | %43
 !>!G,,2 !>![D,G,B,]2 !>![G,B,D]2 |[K:treble] !>![B,DG]2 !>![DFB] z z2 | %45
[K:bass] [A,,A,]2 [E,A,C]2 [A,CE]2 | [D,,D,]2 [D,F,C]2 [F,A,CD]2 | %47
 G,,2 !arpeggio![G,B,D]2[K:treble] !arpeggio!.[B,DG]2 | %48
 .[DGB] z[K:bass] !>!!tenuto!!fermata![B,,B,]2 !>!!tenuto!!fermata![_B,,_B,]2 | %49
"^a tempo" [A,,A,]2 [E,A,C]2 [A,CE]2 | [D,,D,]2 [D,F,C]2 [F,A,CD]2 | %51
 !>!G,,2 !>![D,G,B,]2 !>![G,B,D]2 |[K:treble] !>![B,DG]2 !>![DFB] z z2 | %53
[K:bass] [F,,F,]2 [F,B,^D]2 [F,B,D]2 | [F,,,F,,]2 [F,^A,=E]2 [F,A,E]2 | %55
 [B,,,B,,]2 !arpeggio![^D,F,B,]2 !arpeggio![F,B,^D]2 | %56
 !arpeggio![B,^DF] z !fermata![B,,B,]2 !fermata![_B,,_B,]2 |"^a tempo" [A,,A,]2 [E,A,C]2 [A,CE]2 | %58
 [D,,D,]2 [D,F,C]2 [F,A,CD]2 | !>!G,,2 !>![D,G,B,]2 !>![G,B,D]2 | %60
[K:treble] !>![B,DG]2 !>![DFB] z z2 |[K:bass] [A,,A,]2 [E,A,C]2 [A,CE]2 | %62
 [D,,D,]2 [D,F,C]2 [F,A,CD]2 | [B,,,B,,]2 !arpeggio!.[=F,B,D]2 !arpeggio!.[^G,D=F]2 | %64
 !arpeggio!.[B,=F^G]2 z2 z2 | .[A,,,A,,]2 !tenuto![E,A,C]4 | [B,,,B,,]2 !tenuto![F,A,B,^D]4 | %67
 !>![^D,,^D,]2 !>![E,,E,]2 !>![G,,G,]2 | %68
 !>![B,,B,]2{/!fermata!E,,} !arpeggio!!fermata![^G,B,DF]2 z2 | %69
 [A,,,A,,]2 !arpeggio![G,A,C_E]2 [A,CEG]2 | [D,,D,]2 !arpeggio![D,F,A,C]2 !arpeggio![A,CDF]2 |1 %71
 !arpeggio![G,,D,B,] z !>!F2 !>!E2 | !>!D2 !fermata![B,,B,]2 !fermata![_B,,_B,]2 :|2 %73
 !arpeggio![G,,D,B,] (F,G,^A,B,"^dim."^C) | x6 |"^rall poco a poco" x6 |"_D.S. al Fine" x6 |] %77
V:3
 x6 | x6 | x6 | x6 | x3 d z z | x3 _e z z | x3 =ez!>!=e' | x6 || x6 | x6 | (!tenuto!B,6 | %11
 !tenuto!C6) | x6 | x6 | (!tenuto!A,6 | !tenuto!B,6) | x6 | z2 [G,D]2 [^G,D]2 | x6 | %19
 z2 [DF]2 [DF]2 | x6 | x6 | z2 [=B,^D]2 [B,C]2 | !tenuto![^A,C]6 | x6 | x6 | (!tenuto!B,6 | %27
 !tenuto!C6) | x6 | x6 | (!tenuto!A,6 | !tenuto!B,6) | x6 | z2 [G,D]2 [^G,D]2 | x6 | %35
 z2 (([^D=G]2!<(! [DF]2)) | x!<)! x5 | x6 | x2 !arpeggio![A,DF]2 !arpeggio![DFA]2 | %39
 !arpeggio![FAd]2 ||[K:G] x4 |: x6 | x6 | x6 | x6 | x6 | x6 | x6 | x6 | x6 | x6 | x6 | x6 | x6 | %54
 x6 | x6 | x6 | x6 | x6 | x6 | x6 | x6 | x6 | x6 | x6 | x6 | x6 | x6 | x6 | x6 | x6 |1 x6 | x6 :|2 %73
 x6 |[I:staff +1] (D[I:staff -1]FG!courtesy!^AB^c) | dfg!8va(!^ab^c' | !fermata!d'6!8va)! |] %77
V:4
 x6 | x6 | x6 | x6 |[K:bass] x6 | x6 | x6 | x6 || x6 | x6 | x6 | x6 | x6 | x6 | x6 | x6 | x6 | x6 | %18
 x6 | x6 | x6 | x6 | x6 | x2!8vb(! x4!8vb)! | x6 | x6 | x6 | x6 | x6 | x6 | x6 | x6 | x6 | x6 | %34
 x6 | B,,6 | x6 | x6 | x6 | x2 ||[K:G] x4 |: x6 | x6 | x6 |[K:treble] x6 |[K:bass] x6 | x6 | %47
 x4[K:treble] x2 | x2[K:bass] x4 | x6 | x6 | x6 |[K:treble] x6 |[K:bass] x6 | x6 | x6 | x6 | x6 | %58
 x6 | x6 |[K:treble] x6 |[K:bass] x6 | x6 | x6 | x6 | x6 | x6 | x6 | x6 | x6 | x6 |1 x6 | x6 :|2 %73
 x6 | x6 | x6 | x6 |] %77

